src/images/ellogo.svg

<svg width="256" height="40" viewBox="0 0 256 40" fill="none" xmlns="http://www.w3.org/2000/svg">
<path d="M3.31121 26.537C1.48551 26.537 0.0113391 25.0917 0.011339 23.3018C0.0113389 21.5119 1.48551 20.0667 3.31121 20.0667L16.0571 20.0667L17.2818 20.0667C18.1323 20.0667 18.8694 19.7332 19.4137 19.1106L23.53 14.4414C24.0857 13.8077 24.8114 13.4853 25.6732 13.4853L35.8223 13.4853C37.6481 13.4853 39.1222 14.9305 39.1222 16.7204C39.1222 18.5103 37.6481 19.9555 35.8223 19.9555L29.2339 19.9555L25.2537 19.9555L21.8631 19.9555C21.0126 19.9555 20.2755 20.2779 19.7199 20.9116L15.6035 25.592C15.0479 26.2257 14.3221 26.5481 13.4717 26.5481L3.31121 26.5481L3.31121 26.537ZM33.5998 -1.41938e-06L35.8223 -1.51327e-06C37.6481 -1.59039e-06 39.1222 1.44525 39.1222 3.23513C39.1222 5.02501 37.6481 6.47026 35.8223 6.47026L29.7896 6.47026C28.9391 6.47026 28.202 6.80378 27.6464 7.42634L23.53 12.0956C22.9744 12.7293 22.2373 13.0517 21.3868 13.0517C15.3541 13.0517 9.33263 13.0517 3.29987 13.0517C1.47417 13.0517 -1.28424e-06 11.6064 -1.3652e-06 9.81656C-1.44616e-06 8.02668 1.47417 6.58143 3.29987 6.58143L3.31121 6.58143L25.2083 6.58143C26.0588 6.58143 26.7959 6.24791 27.3402 5.62535L31.4565 0.956084C32.0122 0.333518 32.7493 -1.38345e-06 33.5998 -1.41938e-06ZM5.53381 40L3.31121 40C1.48551 40 0.0113397 38.5548 0.0113396 36.7649C0.0113395 34.975 1.48551 33.5297 3.31121 33.5297L9.35531 33.5297C10.2058 33.5297 10.9429 33.1962 11.4872 32.5737L15.6035 27.9044C16.1592 27.2707 16.8849 26.9483 17.7467 26.9483C23.7795 26.9483 29.8009 26.9483 35.8337 26.9483C37.6594 26.9483 39.1336 28.3936 39.1336 30.1834C39.1336 31.9733 37.6594 33.4186 35.8337 33.4186L35.8223 33.4186L13.9252 33.4186C13.0748 33.4186 12.3377 33.741 11.7934 34.3747L7.67703 39.0439C7.12138 39.6665 6.38429 40 5.53381 40Z" fill="#19153E"/>
<path d="M3.31121 26.537C1.48551 26.537 0.0113391 25.0917 0.011339 23.3018C0.0113389 21.5119 1.48551 20.0667 3.31121 20.0667L16.0571 20.0667L17.2818 20.0667C18.1323 20.0667 18.8694 19.7332 19.4137 19.1106L23.53 14.4414C24.0857 13.8077 24.8114 13.4853 25.6732 13.4853L35.8223 13.4853C37.6481 13.4853 39.1222 14.9305 39.1222 16.7204C39.1222 18.5103 37.6481 19.9555 35.8223 19.9555L29.2339 19.9555L25.2537 19.9555L21.8631 19.9555C21.0126 19.9555 20.2755 20.2779 19.7199 20.9116L15.6035 25.592C15.0479 26.2257 14.3221 26.5481 13.4717 26.5481L3.31121 26.5481L3.31121 26.537ZM33.5998 -1.41938e-06L35.8223 -1.51327e-06C37.6481 -1.59039e-06 39.1222 1.44525 39.1222 3.23513C39.1222 5.02501 37.6481 6.47026 35.8223 6.47026L29.7896 6.47026C28.9391 6.47026 28.202 6.80378 27.6464 7.42634L23.53 12.0956C22.9744 12.7293 22.2373 13.0517 21.3868 13.0517C15.3541 13.0517 9.33263 13.0517 3.29987 13.0517C1.47417 13.0517 -1.28424e-06 11.6064 -1.3652e-06 9.81656C-1.44616e-06 8.02668 1.47417 6.58143 3.29987 6.58143L3.31121 6.58143L25.2083 6.58143C26.0588 6.58143 26.7959 6.24791 27.3402 5.62535L31.4565 0.956084C32.0122 0.333518 32.7493 -1.38345e-06 33.5998 -1.41938e-06ZM5.53381 40L3.31121 40C1.48551 40 0.0113397 38.5548 0.0113396 36.7649C0.0113395 34.975 1.48551 33.5297 3.31121 33.5297L9.35531 33.5297C10.2058 33.5297 10.9429 33.1962 11.4872 32.5737L15.6035 27.9044C16.1592 27.2707 16.8849 26.9483 17.7467 26.9483C23.7795 26.9483 29.8009 26.9483 35.8337 26.9483C37.6594 26.9483 39.1336 28.3936 39.1336 30.1834C39.1336 31.9733 37.6594 33.4186 35.8337 33.4186L35.8223 33.4186L13.9252 33.4186C13.0748 33.4186 12.3377 33.741 11.7934 34.3747L7.67703 39.0439C7.12138 39.6665 6.38429 40 5.53381 40Z" fill="black"/>
<path fill-rule="evenodd" clip-rule="evenodd" d="M248.949 32.474L248.949 17.7785C248.949 16.6515 249.192 15.5134 250.021 14.6958C250.839 13.8671 251.999 13.624 253.126 13.624L255.458 13.624C255.757 13.624 256 13.3809 256 13.0826L256 9.3921C256 9.09377 255.757 8.85069 255.458 8.85069L252.22 8.85069C249.888 8.85069 247.678 9.4584 245.998 11.1489C244.318 12.8395 243.721 15.0604 243.721 17.4028L243.721 32.474C243.721 32.7724 243.964 33.0155 244.263 33.0155L248.418 33.0155C248.706 33.0155 248.949 32.7724 248.949 32.474ZM90.1973 0.000219482C92.0209 0.000219404 93.4908 1.46977 93.4908 3.2929C93.4908 5.11604 92.0098 6.58559 90.1973 6.58559C88.3737 6.58559 86.9038 5.11604 86.9038 3.2929C86.9038 1.46977 88.3737 0.00021956 90.1973 0.000219482ZM98.21 32.474L98.21 1.34823C98.21 1.0499 98.4532 0.806818 98.7516 0.806818L102.885 0.806818C103.183 0.806818 103.427 1.0499 103.427 1.34823L103.427 9.19322L109.152 9.19322C109.45 9.19322 109.693 9.4363 109.693 9.73463L109.693 13.182C109.693 13.4803 109.45 13.7234 109.152 13.7234L103.427 13.7234L103.427 32.474C103.427 32.7724 103.183 33.0155 102.885 33.0155L98.7516 33.0155C98.4532 33.0155 98.21 32.7724 98.21 32.474ZM76.968 32.474L76.968 1.34823C76.968 1.0499 77.2112 0.806819 77.5096 0.806819L81.643 0.806819C81.9414 0.806818 82.1846 1.0499 82.1846 1.34823L82.1846 32.474C82.1846 32.7724 81.9414 33.0155 81.643 33.0155L77.5096 33.0155C77.2112 33.0155 76.968 32.7724 76.968 32.474ZM87.589 32.474L87.589 9.73463C87.589 9.4363 87.8322 9.19322 88.1306 9.19322L92.264 9.19322C92.5624 9.19322 92.8056 9.4363 92.8056 9.73463L92.8056 32.474C92.8056 32.7724 92.5624 33.0155 92.264 33.0155L88.1306 33.0155C87.8322 33.0155 87.589 32.7724 87.589 32.474ZM115.86 18.6293L129.498 18.6293C129.078 17.1266 128.327 15.8117 127.089 14.8284C125.796 13.8118 124.293 13.3698 122.646 13.3698C121.01 13.3698 119.485 13.8118 118.203 14.8504C116.987 15.8338 116.247 17.1266 115.86 18.6293ZM115.716 22.9385C116.015 24.5517 116.711 25.9881 117.982 27.0709C119.308 28.209 120.922 28.6731 122.657 28.6731C123.939 28.6731 125.155 28.4079 126.282 27.7892C127.111 27.3251 127.807 26.7174 128.371 25.9771C128.548 25.734 128.879 25.6898 129.123 25.8666L132.261 28.1538C132.383 28.2422 132.449 28.3637 132.471 28.5184C132.493 28.6731 132.46 28.8057 132.361 28.9272C131.631 29.8885 130.747 30.7283 129.719 31.4465C127.608 32.916 125.232 33.6011 122.657 33.6011C119.253 33.6011 116.324 32.4519 113.937 30.0101C111.528 27.5461 110.423 24.5407 110.423 21.1154C110.423 18.8724 110.92 16.7178 112.014 14.751C113.075 12.8505 114.534 11.3478 116.413 10.2539C118.336 9.13797 120.436 8.62971 122.657 8.62971C124.923 8.62971 127.067 9.14902 129.012 10.3202C130.869 11.4362 132.306 12.95 133.311 14.8615C134.35 16.8283 134.814 18.9497 134.814 21.1706C134.814 21.6016 134.781 22.0325 134.737 22.4524C134.704 22.7286 134.472 22.9385 134.195 22.9385L115.716 22.9385ZM54.3666 18.6293L68.0048 18.6293C67.5848 17.1266 66.8333 15.8117 65.5955 14.8284C64.3024 13.8118 62.7883 13.3698 61.1526 13.3698C59.5058 13.3698 57.9917 13.8118 56.7096 14.8505C55.4939 15.8338 54.7424 17.1266 54.3666 18.6293ZM54.2119 22.9385C54.5103 24.5517 55.2066 25.9881 56.4776 27.071C57.8038 28.209 59.4174 28.6731 61.1526 28.6731C62.4346 28.6731 63.6503 28.4079 64.7776 27.7892C65.6065 27.3251 66.3028 26.7174 66.8554 25.9771C67.0322 25.734 67.3749 25.6898 67.607 25.8666L70.7457 28.1538C70.8673 28.2422 70.9336 28.3637 70.9668 28.5184C70.9889 28.6731 70.9557 28.8057 70.8562 28.9272C70.1268 29.8885 69.2427 30.7283 68.2148 31.4465C66.1039 32.916 63.7277 33.6011 61.1526 33.6011C57.7485 33.6011 54.8198 32.4519 52.4325 30.0101C50.0232 27.5461 48.918 24.5407 48.918 21.1154C48.918 18.8724 49.4153 16.7178 50.5095 14.751C51.5705 12.8505 53.0293 11.3478 54.9082 10.254C56.8312 9.13797 58.9311 8.62971 61.1526 8.62971C63.4182 8.62971 65.5623 9.14902 67.5075 10.3202C69.3642 11.4362 70.801 12.95 71.8067 14.8615C72.8456 16.8283 73.2987 18.9497 73.2987 21.1706C73.2987 21.6016 73.2656 22.0325 73.2214 22.4524C73.1882 22.7286 72.9561 22.9385 72.6798 22.9385L54.2119 22.9385ZM162.71 31.5017C160.709 33.0707 158.2 33.59 155.703 33.59C153.172 33.59 150.674 33.0265 148.696 31.3581C147.458 30.3194 146.662 29.0598 146.253 27.6124C146.209 27.4577 146.231 27.314 146.308 27.1814C146.386 27.0488 146.507 26.9605 146.662 26.9273L150.608 26.0765C150.873 26.0213 151.138 26.1649 151.238 26.4301C151.448 27.0488 151.846 27.5682 152.431 27.988C153.426 28.7062 154.664 28.9272 155.88 28.9272C156.974 28.9272 158.112 28.7394 159.051 28.1427C159.814 27.6566 160.256 26.9936 160.256 26.0876C160.256 25.7229 160.168 25.3694 159.98 25.0489C159.803 24.7506 159.571 24.4965 159.295 24.2976C158.963 24.0655 158.51 23.8888 158.123 23.7672C157.67 23.6236 157.195 23.491 156.731 23.3915C156.178 23.27 155.614 23.1706 155.051 23.0711C154.476 22.9717 153.901 22.8722 153.338 22.7507C152.774 22.6402 152.221 22.4855 151.669 22.3308C151.105 22.1761 150.519 21.9772 149.989 21.712C149.503 21.469 149.038 21.1706 148.596 20.8502C148.132 20.5187 147.701 20.1099 147.392 19.6237C147.071 19.1265 146.85 18.552 146.673 17.9884C146.463 17.3034 146.375 16.5962 146.375 15.878C146.375 13.7013 147.248 11.9445 148.961 10.6075C150.884 9.10482 153.271 8.6076 155.67 8.6076C158.068 8.6076 160.444 9.13797 162.334 10.6959C163.55 11.7014 164.312 12.9389 164.677 14.3532C164.721 14.4969 164.699 14.6405 164.611 14.7731C164.533 14.9057 164.412 14.983 164.268 15.0162L160.477 15.8338C160.201 15.8891 159.925 15.7233 159.847 15.4471C159.681 14.8504 159.339 14.3422 158.786 13.9334C157.869 13.2704 156.664 13.0936 155.559 13.0936C154.531 13.0936 153.393 13.2594 152.52 13.8339C151.834 14.2869 151.448 14.8946 151.448 15.7344C151.448 16.0106 151.492 16.2979 151.591 16.541C151.702 16.7951 151.89 16.983 152.111 17.1487C152.354 17.3255 152.608 17.4802 152.862 17.6238C153.183 17.7785 153.57 17.889 153.912 17.9663C154.31 18.0547 154.708 18.1431 155.106 18.2205C155.559 18.3199 156.012 18.3862 156.465 18.4636C158.013 18.7287 160.002 19.0713 161.45 19.69C163.925 20.7397 165.241 22.6291 165.384 25.3031C165.395 25.4909 165.406 25.6787 165.406 25.8666C165.395 28.1869 164.522 30.0764 162.71 31.5017ZM196.153 32.474L196.153 1.34823C196.153 1.0499 196.396 0.806814 196.695 0.806814L200.828 0.806813C201.127 0.806813 201.37 1.0499 201.37 1.34823L201.37 32.474C201.37 32.7724 201.127 33.0155 200.828 33.0155L196.695 33.0155C196.396 33.0155 196.153 32.7724 196.153 32.474ZM206.774 32.474L206.774 1.34823C206.774 1.0499 207.017 0.806813 207.316 0.806813L211.449 0.806813C211.748 0.806813 211.991 1.0499 211.991 1.34823L211.991 32.474C211.991 32.7724 211.748 33.0155 211.449 33.0155L207.316 33.0155C207.017 33.0155 206.774 32.7724 206.774 32.474ZM221.098 18.6293L234.736 18.6293C234.316 17.1266 233.564 15.8117 232.326 14.8283C231.033 13.8118 229.519 13.3698 227.883 13.3698C226.248 13.3698 224.723 13.8118 223.441 14.8504C222.236 15.8338 221.484 17.1266 221.098 18.6293ZM220.954 22.9385C221.252 24.5517 221.949 25.9881 223.22 27.0709C224.546 28.209 226.159 28.6731 227.895 28.6731C229.177 28.6731 230.392 28.4079 231.52 27.7891C232.36 27.3251 233.056 26.7174 233.608 25.9771C233.785 25.734 234.117 25.6898 234.36 25.8666L237.499 28.1538C237.62 28.2422 237.698 28.3637 237.72 28.5184C237.742 28.6731 237.709 28.8057 237.609 28.9272C236.88 29.8885 235.996 30.7283 234.968 31.4465C232.857 32.916 230.481 33.6011 227.906 33.6011C224.502 33.6011 221.573 32.4519 219.186 30.0101C216.776 27.5461 215.671 24.5407 215.671 21.1154C215.671 18.8724 216.168 16.7178 217.262 14.751C218.324 12.8505 219.782 11.3478 221.661 10.2539C223.584 9.13797 225.684 8.6297 227.895 8.6297C230.16 8.6297 232.304 9.14902 234.249 10.3202C236.106 11.4362 237.543 12.95 238.549 14.8615C239.588 16.8283 240.052 18.9497 240.052 21.1706C240.052 21.6016 240.019 22.0325 239.974 22.4523C239.941 22.7286 239.72 22.9385 239.433 22.9385L220.954 22.9385ZM173.541 18.6293L187.179 18.6293C186.759 17.1266 186.007 15.8117 184.77 14.8283C183.476 13.8118 181.962 13.3698 180.327 13.3698C178.691 13.3698 177.166 13.8118 175.884 14.8504C174.668 15.8338 173.927 17.1266 173.541 18.6293ZM173.397 22.9385C173.695 24.5517 174.392 25.9881 175.663 27.0709C176.989 28.209 178.602 28.6731 180.338 28.6731C181.62 28.6731 182.835 28.4079 183.963 27.7891C184.792 27.3251 185.488 26.7174 186.052 25.9771C186.228 25.734 186.56 25.6898 186.803 25.8666L189.942 28.1538C190.063 28.2422 190.141 28.3637 190.163 28.5184C190.185 28.662 190.152 28.8057 190.052 28.9272C189.323 29.8885 188.439 30.7283 187.411 31.4465C185.3 32.916 182.924 33.6011 180.349 33.6011C176.945 33.6011 174.016 32.4519 171.629 30.0101C169.219 27.5461 168.114 24.5407 168.114 21.1154C168.114 18.8724 168.611 16.7178 169.706 14.751C170.767 12.8505 172.225 11.3478 174.104 10.2539C176.027 9.13797 178.127 8.6297 180.338 8.6297C182.603 8.6297 184.747 9.14902 186.693 10.3202C188.549 11.4362 189.986 12.95 190.992 14.8615C192.02 16.8283 192.484 18.9497 192.484 21.1706C192.484 21.6016 192.451 22.0325 192.406 22.4523C192.373 22.7286 192.152 22.9385 191.865 22.9385L173.397 22.9385Z" fill="#19153E"/>
</svg>

<svg width="256" height="40" viewBox="0 0 256 40" fill="none" xmlns="http://www.w3.org/2000/svg"><path d="M3.311 26.537c-1.825 0-3.3-1.445-3.3-3.235 0-1.79 1.475-3.235 3.3-3.235h13.971c.85 0 1.587-.334 2.132-.956l4.116-4.67c.556-.633 1.281-.956 2.143-.956h10.15c1.825 0 3.3 1.446 3.3 3.235 0 1.79-1.475 3.236-3.3 3.236h-13.96c-.85 0-1.587.322-2.143.956l-4.116 4.68c-.556.634-1.282.956-2.132.956H3.312v-.011zM33.6 0h2.222c1.826 0 3.3 1.445 3.3 3.235 0 1.79-1.474 3.235-3.3 3.235H29.79c-.85 0-1.588.334-2.144.956l-4.116 4.67c-.556.633-1.293.956-2.143.956H3.3c-1.826 0-3.3-1.446-3.3-3.235C0 8.027 1.474 6.58 3.3 6.58H25.208c.85 0 1.588-.333 2.132-.956L31.456.956A2.795 2.795 0 0 1 33.6 0zM5.534 40H3.31c-1.825 0-3.3-1.445-3.3-3.235 0-1.79 1.475-3.235 3.3-3.235h6.044c.85 0 1.588-.334 2.132-.956l4.117-4.67c.555-.633 1.28-.956 2.143-.956h18.087c1.825 0 3.3 1.446 3.3 3.235 0 1.79-1.475 3.236-3.3 3.236H13.925c-.85 0-1.587.322-2.132.956l-4.116 4.669A2.795 2.795 0 0 1 5.534 40z" fill="#19153E"/><path d="M3.311 26.537c-1.825 0-3.3-1.445-3.3-3.235 0-1.79 1.475-3.235 3.3-3.235h13.971c.85 0 1.587-.334 2.132-.956l4.116-4.67c.556-.633 1.281-.956 2.143-.956h10.15c1.825 0 3.3 1.446 3.3 3.235 0 1.79-1.475 3.236-3.3 3.236h-13.96c-.85 0-1.587.322-2.143.956l-4.116 4.68c-.556.634-1.282.956-2.132.956H3.312v-.011zM33.6 0h2.222c1.826 0 3.3 1.445 3.3 3.235 0 1.79-1.474 3.235-3.3 3.235H29.79c-.85 0-1.588.334-2.144.956l-4.116 4.67c-.556.633-1.293.956-2.143.956H3.3c-1.826 0-3.3-1.446-3.3-3.235C0 8.027 1.474 6.58 3.3 6.58H25.208c.85 0 1.588-.333 2.132-.956L31.456.956A2.795 2.795 0 0 1 33.6 0zM5.534 40H3.31c-1.825 0-3.3-1.445-3.3-3.235 0-1.79 1.475-3.235 3.3-3.235h6.044c.85 0 1.588-.334 2.132-.956l4.117-4.67c.555-.633 1.28-.956 2.143-.956h18.087c1.825 0 3.3 1.446 3.3 3.235 0 1.79-1.475 3.236-3.3 3.236H13.925c-.85 0-1.587.322-2.132.956l-4.116 4.669A2.795 2.795 0 0 1 5.534 40z" fill="#000"/><path fill-rule="evenodd" clip-rule="evenodd" d="M248.949 32.474V17.779c0-1.128.243-2.266 1.072-3.083.818-.829 1.978-1.072 3.105-1.072h2.332a.542.542 0 0 0 .542-.541v-3.69a.542.542 0 0 0-.542-.542h-3.238c-2.332 0-4.542.607-6.222 2.298-1.68 1.69-2.277 3.911-2.277 6.254v15.071c0 .298.243.542.542.542h4.155a.54.54 0 0 0 .531-.542zM90.197 0a3.287 3.287 0 0 1 3.294 3.293 3.294 3.294 0 0 1-6.587 0A3.287 3.287 0 0 1 90.197 0zm8.013 32.474V1.348c0-.298.243-.541.542-.541h4.133c.298 0 .542.243.542.541v7.845h5.725c.298 0 .541.243.541.542v3.447a.542.542 0 0 1-.541.541h-5.725v18.751a.543.543 0 0 1-.542.542h-4.133a.542.542 0 0 1-.542-.542zm-21.242 0V1.348c0-.298.243-.541.542-.541h4.133c.298 0 .542.243.542.541v31.126a.542.542 0 0 1-.542.542H77.51a.542.542 0 0 1-.542-.542zm10.621 0V9.734c0-.298.243-.54.542-.54h4.133c.298 0 .542.242.542.54v22.74a.542.542 0 0 1-.542.542h-4.133a.542.542 0 0 1-.542-.542zm28.271-13.845h13.638c-.42-1.502-1.171-2.817-2.409-3.8-1.293-1.017-2.796-1.46-4.443-1.46-1.636 0-3.161.443-4.443 1.481-1.216.984-1.956 2.277-2.343 3.78zm-.144 4.31c.299 1.613.995 3.05 2.266 4.132 1.326 1.138 2.94 1.602 4.675 1.602 1.282 0 2.498-.265 3.625-.884a6.74 6.74 0 0 0 2.089-1.812.533.533 0 0 1 .752-.11l3.138 2.287c.122.088.188.21.21.364a.5.5 0 0 1-.11.41 11.712 11.712 0 0 1-2.642 2.518c-2.111 1.47-4.487 2.155-7.062 2.155-3.404 0-6.333-1.15-8.72-3.59-2.409-2.465-3.514-5.47-3.514-8.896 0-2.243.497-4.397 1.591-6.364 1.061-1.9 2.52-3.403 4.399-4.497 1.923-1.116 4.023-1.624 6.244-1.624 2.266 0 4.41.519 6.355 1.69a11.401 11.401 0 0 1 4.299 4.541c1.039 1.967 1.503 4.089 1.503 6.31 0 .43-.033.861-.077 1.281a.549.549 0 0 1-.542.486h-18.479zm-61.35-4.31h13.639c-.42-1.502-1.172-2.817-2.41-3.8-1.293-1.017-2.807-1.46-4.442-1.46-1.647 0-3.161.443-4.443 1.482-1.216.983-1.968 2.276-2.343 3.778zm-.154 4.31c.298 1.613.995 3.05 2.266 4.132 1.326 1.138 2.94 1.602 4.675 1.602 1.282 0 2.497-.265 3.625-.884a6.573 6.573 0 0 0 2.077-1.812.534.534 0 0 1 .752-.11l3.139 2.287c.121.088.188.21.22.364a.498.498 0 0 1-.11.41 11.699 11.699 0 0 1-2.641 2.518c-2.111 1.47-4.487 2.155-7.062 2.155-3.404 0-6.333-1.15-8.72-3.59-2.41-2.465-3.515-5.47-3.515-8.896 0-2.243.497-4.397 1.592-6.364 1.06-1.9 2.52-3.403 4.398-4.497 1.923-1.116 4.023-1.624 6.245-1.624 2.265 0 4.41.519 6.354 1.69a11.409 11.409 0 0 1 4.3 4.541c1.039 1.967 1.492 4.089 1.492 6.31 0 .43-.033.861-.078 1.281a.549.549 0 0 1-.541.486H54.212zm108.498 8.563c-2.001 1.569-4.51 2.088-7.007 2.088-2.531 0-5.029-.564-7.007-2.232-1.238-1.039-2.034-2.298-2.443-3.746a.535.535 0 0 1 .055-.43.527.527 0 0 1 .354-.255l3.946-.85a.55.55 0 0 1 .63.353c.21.619.608 1.138 1.193 1.558.995.718 2.233.94 3.449.94 1.094 0 2.232-.189 3.171-.785.763-.486 1.205-1.15 1.205-2.055a2.03 2.03 0 0 0-.276-1.04 2.485 2.485 0 0 0-.685-.75c-.332-.232-.785-.41-1.172-.53a15.257 15.257 0 0 0-1.392-.377c-.553-.121-1.117-.22-1.68-.32a42.31 42.31 0 0 1-1.713-.32 21.569 21.569 0 0 1-1.669-.42 9.277 9.277 0 0 1-1.68-.619 10.07 10.07 0 0 1-1.393-.862c-.464-.331-.895-.74-1.204-1.226-.321-.497-.542-1.072-.719-1.636a7.163 7.163 0 0 1-.298-2.11c0-2.177.873-3.934 2.586-5.27 1.923-1.503 4.31-2 6.709-2 2.398 0 4.774.53 6.664 2.088 1.216 1.005 1.978 2.243 2.343 3.657a.48.48 0 0 1-.066.42.516.516 0 0 1-.343.243l-3.791.818a.544.544 0 0 1-.63-.387c-.166-.597-.508-1.105-1.061-1.514-.917-.663-2.122-.84-3.227-.84-1.028 0-2.166.166-3.039.74-.686.454-1.072 1.062-1.072 1.901 0 .277.044.564.143.807.111.254.299.442.52.608.243.177.497.331.751.475.321.155.708.265 1.05.342.398.089.796.177 1.194.255.453.099.906.165 1.359.243 1.548.265 3.537.607 4.985 1.226 2.475 1.05 3.791 2.94 3.934 5.613.011.188.022.376.022.564-.011 2.32-.884 4.21-2.696 5.635zm33.443.972V1.348c0-.298.243-.541.542-.541h4.133c.299 0 .542.243.542.541v31.126a.542.542 0 0 1-.542.542h-4.133a.542.542 0 0 1-.542-.542zm10.621 0V1.348c0-.298.243-.541.542-.541h4.133c.299 0 .542.243.542.541v31.126a.542.542 0 0 1-.542.542h-4.133a.542.542 0 0 1-.542-.542zm14.324-13.845h13.638c-.42-1.502-1.172-2.817-2.41-3.8-1.293-1.017-2.807-1.46-4.443-1.46-1.635 0-3.16.443-4.442 1.481-1.205.984-1.957 2.277-2.343 3.78zm-.144 4.31c.298 1.613.995 3.05 2.266 4.132 1.326 1.138 2.939 1.602 4.675 1.602 1.282 0 2.497-.265 3.625-.884a6.484 6.484 0 0 0 2.088-1.812.533.533 0 0 1 .752-.11l3.139 2.287c.121.088.199.21.221.364a.497.497 0 0 1-.111.41 11.686 11.686 0 0 1-2.641 2.518c-2.111 1.47-4.487 2.155-7.062 2.155-3.404 0-6.333-1.15-8.72-3.59-2.41-2.465-3.515-5.47-3.515-8.896 0-2.243.497-4.397 1.591-6.364 1.062-1.9 2.52-3.403 4.399-4.497 1.923-1.116 4.023-1.624 6.234-1.624 2.265 0 4.409.519 6.354 1.69a11.41 11.41 0 0 1 4.3 4.541c1.039 1.967 1.503 4.089 1.503 6.31 0 .43-.033.861-.078 1.281a.54.54 0 0 1-.541.486h-18.479zm-47.413-4.31h13.638c-.42-1.502-1.172-2.817-2.409-3.8-1.294-1.017-2.808-1.46-4.443-1.46-1.636 0-3.161.443-4.443 1.481-1.216.984-1.957 2.277-2.343 3.78zm-.144 4.31c.298 1.613.995 3.05 2.266 4.132 1.326 1.138 2.939 1.602 4.675 1.602 1.282 0 2.497-.265 3.625-.884a6.738 6.738 0 0 0 2.089-1.812.531.531 0 0 1 .751-.11l3.139 2.287c.121.088.199.21.221.364a.507.507 0 0 1-.111.41 11.686 11.686 0 0 1-2.641 2.518c-2.111 1.47-4.487 2.155-7.062 2.155-3.404 0-6.333-1.15-8.72-3.59-2.41-2.465-3.515-5.47-3.515-8.896 0-2.243.497-4.397 1.592-6.364 1.061-1.9 2.519-3.403 4.398-4.497 1.923-1.116 4.023-1.624 6.234-1.624 2.265 0 4.409.519 6.355 1.69a11.415 11.415 0 0 1 4.299 4.541c1.028 1.967 1.492 4.089 1.492 6.31 0 .43-.033.861-.078 1.281a.54.54 0 0 1-.541.486h-18.468z" fill="#19153E"/></svg>
